svgs/sharp-solid/input-pipe.svg

<svg xmlns="http://www.w3.org/2000/svg" viewBox="0 0 640 512"><!--! Font Awesome Pro 6.6.0 by @fontawesome - https://fontawesome.com License - https://fontawesome.com/license (Commercial License) Copyright 2024 Fonticons, Inc. --><path d="M64 128l0 256 512 0 0-256L64 128zM0 64l64 0 512 0 64 0 0 64 0 256 0 64-64 0L64 448 0 448l0-64L0 128 0 64zM144 184l0 144 0 24-48 0 0-24 0-144 0-24 48 0 0 24z"/></svg>

<svg xmlns="http://www.w3.org/2000/svg" viewBox="0 0 640 512"><!--! Font Awesome Pro 6.4.2 by @fontawesome - https://fontawesome.com License - https://fontawesome.com/license (Commercial License) Copyright 2023 Fonticons, Inc. --><path d="M64 128V384H576V128H64zM0 64H64 576h64v64V384v64H576 64 0V384 128 64zM144 184V328v24H96V328 184 160h48v24z"/></svg>
